X: 912
T: A Draught of Ale.
B:O'Neill's 912
N:"collected by J. O'Neill."
Z:Transcribed by Tom Keays (htkeays@mailbox.syr.edu)
Z:abc 1.6
M:6/8
R:Jig
L:1/8
K:G
D | GBA G2A | Bdg Bdg | GBA G2B | AFD AFD  |
GBA G2A | Bdg Bdg | ecA dBG | cAF G2 :|
|| d | egf g2f | ege dBG | GFG dBG | BAA A2d  |
egf g2f | ege dBG | GFG dBG | cAF G2 :|


